X:195 
T:Swallow's Tail (reel), The 
B:CRE3.196 (Eireaball na FÃÂÃÂÃÂÃÂ¡inleoige)
F:file ID: cre.3/195swall_t
R:reel
L:1/8
Q:180
M:C
K:Am
g^f|eAcA eAcA|(3Bcd e^f g2dB|GABG DGBG|Bde^f gfgf|
eAcA EAcA|(3Bcd e^f g/a/g fg|(3ag^f (3gfe dfed|\
[1 (3cdc (3BcB A2:|2 (3cdc (3BcB A|| 
|:Bcd| eaa2 aged|cde^f gedB|GABG DGBG|Bde^f gfgd|
eaag aged|cde^f gafg|abge d^fed|1 (3cdc (3BcB A:|\
[2 (3cdc (3BcB HA4||

%%%

